X: 475
T: The Bird Alone
N:"Moderate" "collected by J.O'Neill"
N:Irish title: an ean aonar
B:O'Neill's 475
Z:Transcribed by henrik.norbeck@mailbox.swipnet.se
M:C
L:1/8
K:Am
EG | A2 A>c BAGE | c2 c>A BAGE | A^GAB (GE)G>E | D2 D2 D2 E^G |
A2 AB c2 d2 | e2 eg f2 d2 | edcA G2 E^G | A6 ||
AG | E2 AB c>dec | d2 eg f2 d2 | edcA G2 ED | E6 E^G |
A2 A>B cAGE | c2 d>c BAGE | A^GAB GEDB, | A,2 A,2 A,2 ||


